X:1
T:Duane Street, LMD
T:Duane Street, LMD
T:George Coles, 1835
T:Public Domain Courtesy of the Cyber Hymnal™
C:George Coles, 1835
Z:Public Domain
Z:Courtesy of the Cyber Hymnal™
%%score ( 1 2 ) ( 3 4 )
L:1/8
Q:1/4=110
M:4/4
K:Ab
V:1 treble 
V:2 treble 
V:3 bass 
V:4 bass 
V:1
 [CE]2 | [EA]3 [Ec] [Ec]2 [EA]2 | [EB]3 [Ed] [Ed]2 [EB]2 | [Ec]3 [EA] [DG]2 [CA]2 | %4
 [EB]2 E2 E2 (ED) | [CA]3 [Ec] [Ec]2 [EA]2 | [EB]3 [Ed] [Ed]2 [EB]2 | [Ec]2 [EA]2 (Bc) (dB) | %8
 [EA]2 [EG]2 [EA]4- | [EA]2 [Ec]2 [Ee]2 [Ec]2 | [Ec]2 [Ee]2 [Ed]2 [EB]2 | [EB]2 [Ed]2 [Ec]2 [EA]2 | %12
 [DG]2 [CA]2 [EB]2 E2 | E2 (ED) [CA]3 [Ec] | [Ec]2 [EA]2 [EB]3 [Ed] | [Ed]2 [EB]2 [Ec]2 [EA]2 | %16
 (Bc) (dB) [EA]2 [EG]2 | !fermata![EA]6 |] %18
V:2
 x2 | x8 | x8 | x8 | x2 E2 E2 x2 | x8 | x8 | x4 F2 F2 | x8 | x8 | x8 | x8 | x6 E2 | E2 x6 | x8 | %15
 x8 | F2 F2 x4 | x6 |] %18
V:3
 [A,,A,]2 | [A,,C]3 [A,,A,] [A,,A,]2 [C,A,]2 | [E,G,]3 [E,B,] [E,B,]2 [E,G,]2 | %3
 A,3 [A,C] [E,B,]2 [F,A,]2 | [E,G,]2 [E,G,]2 ([E,G,][D,B,]) ([C,A,][B,,G,]) | %5
 [A,,A,]3 [A,,A,] [A,,A,]2 [C,A,]2 | [E,G,]3 [E,B,] [E,B,]2 [E,G,]2 | A,2 [C,A,]2 [D,A,]2 (B,D) | %8
 [E,C]2 [E,B,]2 [A,,C]4- | [A,,C]2 A,2 [A,C]2 x2 | A,2 [A,C]2 [E,B,]2 [E,G,]2 | %11
 [E,G,]2 [G,B,]2 A,2 [A,C]2 | [E,B,]2 [F,A,]2 [E,G,]2 [E,G,]2 | %13
 ([E,G,][D,B,]) ([C,A,][B,,G,]) [A,,A,]3 [A,,A,] | [A,,A,]2 [C,A,]2 [E,G,]3 [E,B,] | %15
 [E,B,]2 [E,G,]2 A,2 [C,A,]2 | [D,A,]2 (B,D) [E,A,]2 [E,B,]2 | !fermata![A,,C]6 |] %18
V:4
 x2 | x8 | x8 | A,3 x5 | x8 | x8 | x8 | A,2 x2 D,2 x2 | x8 | x2 A,2 A,2 x2 | x8 | x4 A,2 x2 | x8 | %13
 x8 | x8 | x4 A,2 x2 | x2 D,2 x4 | x6 |] %18

